app/src/main/assets/symbols/transport/parking_private.svg

<?xml version="1.0" encoding="UTF-8" standalone="no"?>
<svg xmlns="http://www.w3.org/2000/svg" version="1.0" width="580" height="580">
 <metadata id="metadata10"/>
 <path id="path4193" d="M 154 123 C 151.4 123 148.8 124.00039 147 125.90039 C 145.2 127.70039 144.09961 130.30039 144.09961 132.90039 L 144.09961 152.40039 L 174.80078 152.40039 L 174.80078 188.5 L 211.19922 188.5 L 211.19922 152.09961 L 174.80078 152.09961 L 174.80078 123 L 154 123 z M 212 123 L 212 151 L 248.40039 151 L 248.40039 123 L 212 123 z M 286.09961 123 L 286 150.30078 L 322.40039 150.30078 L 322.40039 123.80078 C 313.20039 123.30078 302.90039 123 291.40039 123 L 286.09961 123 z M 362.19922 129.55078 L 362.09961 148.90039 L 398.5 148.90039 L 398.5 146.09961 C 398.1 145.79961 397.70078 145.50078 397.30078 145.30078 C 387.30078 138.30078 375.39922 133.10078 362.19922 129.55078 z M 398.84961 148.19922 L 398.90039 184.5 L 429.90039 184.5 C 429.90039 184.4 429.80078 184.40078 429.80078 184.30078 C 422.50078 169.50078 412.89961 157.30078 401.09961 148.30078 L 398.84961 148.19922 z M 248.80078 149.90039 L 248.80078 185.90039 L 285.19922 185.90039 L 285.19922 149.90039 L 248.80078 149.90039 z M 323.80078 150 L 323.80078 186.40039 L 360.19922 186.40039 L 360.19922 150 L 323.80078 150 z M 398.19922 185.40039 L 361.80078 185.44922 L 361.80078 205.5 C 362.00078 205.8 362.20039 206.00078 362.40039 206.30078 C 365.70039 211.00078 368.20078 216.10078 369.80078 221.80078 L 398.19922 221.80078 L 398.19922 185.40039 z M 144 188 L 144 224.40039 L 174.69922 224.40039 L 174.69922 188 L 144 188 z M 435 195.09961 L 435 220 L 399 220 L 399 256.40039 L 435.40039 256.40039 L 435.40039 221 L 441.09961 221 C 439.99961 212 438 203.39961 435 195.09961 z M 176 223.90039 L 176 260.30078 L 212.40039 260.30078 L 212.40039 223.90039 L 176 223.90039 z M 371.09961 257.40039 C 369.29961 263.80039 366.60078 269.39961 362.80078 274.09961 L 362.80078 293.80078 L 399 293.80078 L 399 293 L 399.19922 293 L 399.19922 257.40039 L 371.09961 257.40039 z M 399.19922 293 L 399.19922 293.80078 L 399 293.80078 L 399 329.40039 L 403.19922 329.40039 C 405.59922 327.30039 407.8 325.20039 410 322.90039 C 418.4 313.80039 425 303.9 430 293 L 399.19922 293 z M 436.19922 257.5 L 436.19922 281.09961 C 438.79922 273.49961 440.70039 265.7 441.90039 257.5 L 436.19922 257.5 z M 144 261 L 144 297.40039 L 174.69922 297.40039 L 174.69922 261 L 144 261 z M 323 293.69922 C 318.2 294.39922 313.1 295.00078 307.5 295.30078 L 323 295.30078 L 323 293.69922 z M 324.69922 294.80078 L 324.69922 331.19922 L 361.09961 331.19922 L 361.09961 294.80078 L 324.69922 294.80078 z M 212.69922 295.59961 L 212.69922 296.09961 L 249.09961 296.09961 L 249.09961 295.59961 L 212.69922 295.59961 z M 249.69922 295.59961 L 249.69922 331.09961 L 286.09961 331.09961 L 286.09961 295.59961 L 249.69922 295.59961 z M 175.69922 296.90039 L 175.69922 333.30078 L 212.09961 333.30078 L 212.09961 296.90039 L 175.69922 296.90039 z M 362.69922 330.40039 L 362.69922 350.40039 C 376.89922 346.30039 389.09961 340.6 399.09961 333 L 399.09961 330.40039 L 362.69922 330.40039 z M 323.19922 331.59961 L 286.80078 331.65039 L 286.80078 358.19922 L 296.19922 358.19922 C 305.69922 358.19922 314.69922 357.79961 323.19922 357.09961 L 323.19922 331.59961 z M 212.80078 332.40039 L 212.80078 358.19922 L 249.19922 358.19922 L 249.19922 332.40039 L 212.80078 332.40039 z M 144 334 L 144 370.40039 L 174.69922 370.40039 L 174.69922 334 L 144 334 z M 175 370 L 175 406.40039 L 211.40039 406.40039 L 211.40039 370 L 175 370 z M 144 407 L 144 443.40039 L 174.69922 443.40039 L 174.69922 407 L 144 407 z M 175 442.90039 L 175 479.30078 L 211.40039 479.30078 L 211.40039 442.90039 L 175 442.90039 z M 144 480 L 144 497 C 144 499.6 145.10039 502.1 146.90039 504 C 148.70039 505.8 151.30039 506.90039 153.90039 506.90039 L 174.69922 506.90039 L 174.69922 480 L 144 480 z " mix-blend-mode="normal" solid-color="#000000" opacity="0.8" color-interpolation-filters="linearRGB" filter-gaussianBlur-deviation="0" color="#000000" image-rendering="auto" color-rendering="auto" stroke-width="64" isolation="auto" color-interpolation="sRGB" solid-opacity="1" fill="none" stroke-linejoin="round" filter-blend-mode="normal" stroke="#ffffff" shape-rendering="auto"/>
 <path d="M 154 123 C 151.4 123 148.8 124.00039 147 125.90039 C 145.2 127.70039 144.09961 130.30039 144.09961 132.90039 L 144.09961 152.40039 L 174.80078 152.40039 L 174.80078 188.5 L 211.19922 188.5 L 211.19922 152.09961 L 174.80078 152.09961 L 174.80078 123 L 154 123 z M 212 123 L 212 151 L 248.40039 151 L 248.40039 123 L 212 123 z M 286.09961 123 L 286 150.30078 L 322.40039 150.30078 L 322.40039 123.80078 C 313.20039 123.30078 302.90039 123 291.40039 123 L 286.09961 123 z M 362.19922 129.55078 L 362.09961 148.90039 L 398.5 148.90039 L 398.5 146.09961 C 398.1 145.79961 397.70078 145.50078 397.30078 145.30078 C 387.30078 138.30078 375.39922 133.10078 362.19922 129.55078 z M 398.84961 148.19922 L 398.90039 184.5 L 429.90039 184.5 C 429.90039 184.4 429.80078 184.40078 429.80078 184.30078 C 422.50078 169.50078 412.89961 157.30078 401.09961 148.30078 L 398.84961 148.19922 z M 248.80078 149.90039 L 248.80078 185.90039 L 285.19922 185.90039 L 285.19922 149.90039 L 248.80078 149.90039 z M 323.80078 150 L 323.80078 186.40039 L 360.19922 186.40039 L 360.19922 150 L 323.80078 150 z M 398.19922 185.40039 L 361.80078 185.44922 L 361.80078 205.5 C 362.00078 205.8 362.20039 206.00078 362.40039 206.30078 C 365.70039 211.00078 368.20078 216.10078 369.80078 221.80078 L 398.19922 221.80078 L 398.19922 185.40039 z M 144 188 L 144 224.40039 L 174.69922 224.40039 L 174.69922 188 L 144 188 z M 435 195.09961 L 435 220 L 399 220 L 399 256.40039 L 435.40039 256.40039 L 435.40039 221 L 441.09961 221 C 439.99961 212 438 203.39961 435 195.09961 z M 176 223.90039 L 176 260.30078 L 212.40039 260.30078 L 212.40039 223.90039 L 176 223.90039 z M 371.09961 257.40039 C 369.29961 263.80039 366.60078 269.39961 362.80078 274.09961 L 362.80078 293.80078 L 399 293.80078 L 399 293 L 399.19922 293 L 399.19922 257.40039 L 371.09961 257.40039 z M 399.19922 293 L 399.19922 293.80078 L 399 293.80078 L 399 329.40039 L 403.19922 329.40039 C 405.59922 327.30039 407.8 325.20039 410 322.90039 C 418.4 313.80039 425 303.9 430 293 L 399.19922 293 z M 436.19922 257.5 L 436.19922 281.09961 C 438.79922 273.49961 440.70039 265.7 441.90039 257.5 L 436.19922 257.5 z M 144 261 L 144 297.40039 L 174.69922 297.40039 L 174.69922 261 L 144 261 z M 323 293.69922 C 318.2 294.39922 313.1 295.00078 307.5 295.30078 L 323 295.30078 L 323 293.69922 z M 324.69922 294.80078 L 324.69922 331.19922 L 361.09961 331.19922 L 361.09961 294.80078 L 324.69922 294.80078 z M 212.69922 295.59961 L 212.69922 296.09961 L 249.09961 296.09961 L 249.09961 295.59961 L 212.69922 295.59961 z M 249.69922 295.59961 L 249.69922 331.09961 L 286.09961 331.09961 L 286.09961 295.59961 L 249.69922 295.59961 z M 175.69922 296.90039 L 175.69922 333.30078 L 212.09961 333.30078 L 212.09961 296.90039 L 175.69922 296.90039 z M 362.69922 330.40039 L 362.69922 350.40039 C 376.89922 346.30039 389.09961 340.6 399.09961 333 L 399.09961 330.40039 L 362.69922 330.40039 z M 323.19922 331.59961 L 286.80078 331.65039 L 286.80078 358.19922 L 296.19922 358.19922 C 305.69922 358.19922 314.69922 357.79961 323.19922 357.09961 L 323.19922 331.59961 z M 212.80078 332.40039 L 212.80078 358.19922 L 249.19922 358.19922 L 249.19922 332.40039 L 212.80078 332.40039 z M 144 334 L 144 370.40039 L 174.69922 370.40039 L 174.69922 334 L 144 334 z M 175 370 L 175 406.40039 L 211.40039 406.40039 L 211.40039 370 L 175 370 z M 144 407 L 144 443.40039 L 174.69922 443.40039 L 174.69922 407 L 144 407 z M 175 442.90039 L 175 479.30078 L 211.40039 479.30078 L 211.40039 442.90039 L 175 442.90039 z M 144 480 L 144 497 C 144 499.6 145.10039 502.1 146.90039 504 C 148.70039 505.8 151.30039 506.90039 153.90039 506.90039 L 174.69922 506.90039 L 174.69922 480 L 144 480 z " id="path4190" opacity="0.8" fill="#0092da" color="#000000"/>
</svg>

<?xml version="1.0" encoding="UTF-8"?>
<svg width="580" height="580" version="1.0" xmlns="http://www.w3.org/2000/svg">
<path id="b" d="m154 123c-2.6 0-5.2 1.0004-7 2.9004-1.8 1.8-2.9004 4.4-2.9004 7v19.5h30.701v36.1h36.398v-36.4h-36.398v-29.1h-20.801zm58 0v28h36.4v-28h-36.4zm74.1 0-0.09961 27.301h36.4v-26.5c-9.2-0.5-19.5-0.80078-31-0.80078h-5.3008zm76.1 6.5508-0.09961 19.35h36.4v-2.8008c-0.4-0.3-0.79922-0.59883-1.1992-0.79883-10-7-21.902-12.2-35.102-15.75zm36.65 18.648 0.05078 36.301h31c0-0.1-0.09961-0.09922-0.09961-0.19922-7.3-14.8-16.901-27-28.701-36l-2.25-0.10156zm-150.05 1.7012v36h36.398v-36h-36.398zm75 0.09961v36.4h36.398v-36.4h-36.398zm74.398 35.4-36.398 0.04883v20.051c0.2 0.3 0.39961 0.50078 0.59961 0.80078 3.3 4.7 5.8004 9.8 7.4004 15.5h28.398v-36.4zm-254.2 2.5996v36.4h30.699v-36.4h-30.699zm291 7.0996v24.9h-36v36.4h36.4v-35.4h5.6992c-1.1-9-3.0996-17.6-6.0996-25.9zm-259 28.801v36.4h36.4v-36.4h-36.4zm195.1 33.5c-1.8 6.4-4.4988 11.999-8.2988 16.699v19.701h36.199v-0.80078h0.19922v-35.6h-28.1zm28.1 35.6v0.80078h-0.19922v35.6h4.1992c2.4-2.1 4.6008-4.2 6.8008-6.5 8.4-9.1 15-19 20-29.9h-30.801zm37-35.5v23.6c2.6-7.6 4.5012-15.4 5.7012-23.6h-5.7012zm-292.2 3.5v36.4h30.699v-36.4h-30.699zm179 32.699c-4.8 0.7-9.9 1.3016-15.5 1.6016h15.5v-1.6016zm1.6992 1.1016v36.398h36.4v-36.398h-36.4zm-112 0.79883v0.5h36.4v-0.5h-36.4zm37 0v35.5h36.4v-35.5h-36.4zm-74 1.3008v36.4h36.4v-36.4h-36.4zm187 33.5v20c14.2-4.1 26.4-9.8004 36.4-17.4v-2.5996h-36.4zm-39.5 1.1992-36.398 0.05078v26.549h9.3984c9.5 0 18.5-0.39961 27-1.0996v-25.5zm-110.4 0.80078v25.799h36.398v-25.799h-36.398zm-68.801 1.5996v36.4h30.699v-36.4h-30.699zm31 36v36.4h36.4v-36.4h-36.4zm-31 37v36.4h30.699v-36.4h-30.699zm31 35.9v36.4h36.4v-36.4h-36.4zm-31 37.1v17c0 2.6 1.1004 5.1 2.9004 7 1.8 1.8 4.4 2.9004 7 2.9004h20.799v-26.9h-30.699z" color="#000000" color-rendering="auto" fill="none" image-rendering="auto" opacity=".8" shape-rendering="auto" solid-color="#000000" stroke="#fff" stroke-linejoin="round" stroke-width="64" filter-blend-mode="normal" filter-gaussianBlur-deviation="0" isolation="auto" mix-blend-mode="normal"/>
<path id="a" d="m154 123c-2.6 0-5.2 1.0004-7 2.9004-1.8 1.8-2.9004 4.4-2.9004 7v19.5h30.701v36.1h36.398v-36.4h-36.398v-29.1h-20.801zm58 0v28h36.4v-28h-36.4zm74.1 0-0.09961 27.301h36.4v-26.5c-9.2-0.5-19.5-0.80078-31-0.80078h-5.3008zm76.1 6.5508-0.09961 19.35h36.4v-2.8008c-0.4-0.3-0.79922-0.59883-1.1992-0.79883-10-7-21.902-12.2-35.102-15.75zm36.65 18.648 0.05078 36.301h31c0-0.1-0.09961-0.09922-0.09961-0.19922-7.3-14.8-16.901-27-28.701-36l-2.25-0.10156zm-150.05 1.7012v36h36.398v-36h-36.398zm75 0.09961v36.4h36.398v-36.4h-36.398zm74.398 35.4-36.398 0.04883v20.051c0.2 0.3 0.39961 0.50078 0.59961 0.80078 3.3 4.7 5.8004 9.8 7.4004 15.5h28.398v-36.4zm-254.2 2.5996v36.4h30.699v-36.4h-30.699zm291 7.0996v24.9h-36v36.4h36.4v-35.4h5.6992c-1.1-9-3.0996-17.6-6.0996-25.9zm-259 28.801v36.4h36.4v-36.4h-36.4zm195.1 33.5c-1.8 6.4-4.4988 11.999-8.2988 16.699v19.701h36.199v-0.80078h0.19922v-35.6h-28.1zm28.1 35.6v0.80078h-0.19922v35.6h4.1992c2.4-2.1 4.6008-4.2 6.8008-6.5 8.4-9.1 15-19 20-29.9h-30.801zm37-35.5v23.6c2.6-7.6 4.5012-15.4 5.7012-23.6h-5.7012zm-292.2 3.5v36.4h30.699v-36.4h-30.699zm179 32.699c-4.8 0.7-9.9 1.3016-15.5 1.6016h15.5v-1.6016zm1.6992 1.1016v36.398h36.4v-36.398h-36.4zm-112 0.79883v0.5h36.4v-0.5h-36.4zm37 0v35.5h36.4v-35.5h-36.4zm-74 1.3008v36.4h36.4v-36.4h-36.4zm187 33.5v20c14.2-4.1 26.4-9.8004 36.4-17.4v-2.5996h-36.4zm-39.5 1.1992-36.398 0.05078v26.549h9.3984c9.5 0 18.5-0.39961 27-1.0996v-25.5zm-110.4 0.80078v25.799h36.398v-25.799h-36.398zm-68.801 1.5996v36.4h30.699v-36.4h-30.699zm31 36v36.4h36.4v-36.4h-36.4zm-31 37v36.4h30.699v-36.4h-30.699zm31 35.9v36.4h36.4v-36.4h-36.4zm-31 37.1v17c0 2.6 1.1004 5.1 2.9004 7 1.8 1.8 4.4 2.9004 7 2.9004h20.799v-26.9h-30.699z" color="#000000" fill="#0092da" opacity=".8"/>
</svg>
